X: 1
T: Susie's Favourite Dram (until further notice)
C: Barbara McOwen (1985)
N: Written for Susie Petrov
S: http://www.math.mun.ca/~bshawyer/jigs/SusuesFavouriteDramUntilFurtherNotice.abc
S: email attachment from Barbara McOwen
R: jig
L: 1/16
M: 6/8
K: Amix=g
"A"|: E2 |\
"A"A2B2A2 c4B2 | A2c2d2 e4f2 |\
"G"g4d2   B4c2 | d2B2G2 "(Em)"G4E2 |\
"A"A2B2A2 c4B2 | A2c2d2 e4f2 |\
"G"g4d2 "(E7)"B2c2d2 | "A"e2A2A2 A4 :|
"B1"[| B2 |\
"A"A2a2a2 a6 | "A7"A2g2g2 g4A2 |\
"D"f2d2f2 "A"e2c2e2 | "G"d2B2G2 "(Em)"G4B2 |\
"A"A2a2a2 a6 | "A7"A2g2g2 g4A2 |\
"Bm"f2d2B2 "(E7)"B2c2d2 | "A"e2A2A2 A4 |]
"B2"[| B2 |\
"A"A2a2a2 a6 | "A7"A2g2g2 g4A2 |\
"D"f2d2f2 "A"e2c2e2 | "G"d2B2G2 "(Em)"G4E2 |\
"A"A2B2A2 c4B2   | A2c2d2 e4f2 |\
"G"g2d2B2 "(E7)"B2c2d2 | "A"e2A2A2 A4 |]
